X: 18
T: My Darling Asleep
Z: Aaron Bergen
S: https://thesession.org/tunes/76#setting48883
R: jig
M: 6/8
L: 1/8
K: Dmaj
|:"D"fdd cAA|BGG A2G|"A"FAA def|"G"gfg eag|
"D"fdd cAA|BGG A2G|"A"FAA def|"G"gec "D"d3:|
|:"D"FAA Add|FAA BGG|"A"FAA def|"G"gfg eag|
"D"fdd cAA|BGG A2G|"A"FAA def|"G"gec "D"d3:|

